X:2

T:Whigs of Fife, The

M:C|

L:1/8

S:Aird, vol. II (1785)

Z:AK/Fiddler’s Companion

K:G

(g | g)G G/G/G BAAB | gG G/G/G gaba | gG G/G/G B(AA)B | GEFD (E2E) :|

|: f | gddg aeef | gdde g/f/g/a/ ba | gddg aeef | (g/a/b) a>g e2e :| 

 

WHIGSBOROUGH HUNT. AKA and see “Hunting the Hare [2].” Irish, Hop Jig (9/8 time). From the Levey collection. See also note for “Do it Fair.”

 

WHILE FOR SOME PAWN THEIR... AKA and see “My Nanny-O.”

 

WHILE GAZING ON THE MOONLIGHT (Ag Amairc Air Solas Na Re). AKA and see "Oonagh." Irish, Air (6/8 time, "animated"). F Major/D Minor. Standard tuning. One part. O'Neill (Music of Ireland: 1850 Melodies), 1903/1979; No. 283, pg. 49.

 

WHILE MAUREEN IS FAR AWAY. Irish, Air (4/4 time). D Minor. Standard tuning. One part. Source for notated version: "Received in 1884...from Mr. John Healy, Teacher of Smithstown National School near Castlecomer Co. Kilkenny. He was then over 70 years of age, and had learned these tunes in early life" (Joyce). Joyce (Old Irish Folk Music and Songs), 1909; No. 340, pg. 156.

